;FLAVOR:Marlin                 ; Прошивка принтера: Marlin
;TIME:1037                     ; Время печати: 1037 секунд (~17.28 минут) [ИСПРАВЛЕНО]
;Filament used: 0.54604m       ; Израсходовано филамента: 0.546 метра
;Layer height: 0.2             ; Высота слоя: 0.2 мм
;MINX:205.21                   ; Минимальная X координата модели
;MINY:195.21                   ; Минимальная Y координата модели
;MINZ:0.24                     ; Начальная высота печати (Z)
;MAXX:244.79                   ; Максимальная X координата модели
;MAXY:234.79                   ; Максимальная Y координата модели
;MAXZ:11.09                    ; Максимальная высота модели (Z)
;Generated with Cura_SteamEngine 5.4.0  ; Сгенерировано в Cura 5.4.0

M140 S80                       ; Начало нагрева стола до 80°C (без ожидания)
M105                           ; Запрос текущей температуры
M190 S80                       ; Ожидание нагрева стола до 80°C
M104 S200                      ; Начало нагрева экструдера до 200°C (без ожидания)
M105                           ; Запрос текущей температуры
M109 S200                      ; Ожидание нагрева экструдера до 200°C

M82 ;absolute extrusion mode   ; Абсолютный режим экструзии

G28 ;Home                      ; Автодоминг всех осей
G1 Z15.0 F6000                 ; Поднять сопло на 15 мм (скорость 6000 мм/мин)

; Подготовка экструдера
G92 E0                         ; Сброс позиции экструдера
G1 F200 E3                     ; Протолкнуть 3 мм филамента (200 мм/мин)
G92 E0                         ; Повторный сброс позиции [избыточный]
G1 F1500 E-6.5                 ; Ретракт (откат) 6.5 мм филамента

;LAYER_COUNT:50                ; Общее количество слоев: 50
;LAYER:-6                      ; Специальный начальный слой
M107                           ; Выключение вентилятора обдува

G0 F7200 X210.787 Y201.221 Z0.24  ; Перемещение к стартовой точке (7200 мм/мин)
;TYPE:SUPPORT-INTERFACE
G1 F1500 E0
G1 F1125 X211.55 Y200.479 E0.04248
G1 X212.088 Y200.014 E0.07086
G1 X212.823 Y199.412 E0.10878
G1 X213.777 Y198.694 E0.15643
G1 X214.688 Y198.107 E0.19969
G1 X215.322 Y197.75 E0.22873
G1 X216.086 Y197.342 E0.2633
G1 X217.173 Y196.819 E0.31144
G1 X218.19 Y196.418 E0.35507
G1 X218.829 Y196.207 E0.38193
G1 X219.77 Y195.923 E0.42116
G1 X220.69 Y195.68 E0.45914
G1 X221.91 Y195.45 E0.50869
G1 X222.578 Y195.367 E0.53556
G1 X223.554 Y195.272 E0.5747
G1 X224.561 Y195.21 E0.61497
G1 X225.633 Y195.216 E0.65775
G1 X226.472 Y195.274 E0.69132
G1 X227.48 Y195.375 E0.73175
G1 X228.467 Y195.509 E0.77151
G1 X229.603 Y195.749 E0.81785
G1 X230.254 Y195.93 E0.84481
G1 X231.237 Y196.229 E0.88582
G1 X232.14 Y196.539 E0.92393
G1 X233.133 Y196.956 E0.96691
G1 X233.859 Y197.313 E0.9992
G1 X234.775 Y197.804 E1.04068
G1 X235.749 Y198.378 E1.08581
G1 X236.511 Y198.898 E1.12263
G1 X237.178 Y199.411 E1.15621
G1 X237.911 Y200.012 E1.19404
G1 X238.779 Y200.787 E1.24049
G1 X239.521 Y201.55 E1.28297
G1 X239.986 Y202.088 E1.31135
G1 X240.581 Y202.814 E1.34881
G1 X241.306 Y203.777 E1.39692
G1 X241.893 Y204.688 E1.44018
G1 X242.25 Y205.322 E1.46922
G1 X242.682 Y206.134 E1.50593
G1 X243.181 Y207.173 E1.55193
G1 X243.582 Y208.188 E1.59549
G1 X243.793 Y208.829 E1.62242
G1 X244.077 Y209.769 E1.66161
G1 X244.32 Y210.69 E1.69963
G1 X244.55 Y211.906 E1.74903
G1 X244.633 Y212.578 E1.77605
G1 X244.728 Y213.545 E1.81483
G1 X244.79 Y214.561 E1.85546
G1 X244.784 Y215.633 E1.89824
G1 X244.727 Y216.462 E1.93141
G1 X244.625 Y217.48 E1.97224
G1 X244.491 Y218.467 E2.012
G1 X244.251 Y219.603 E2.05834
G1 X244.071 Y220.254 E2.0853
G1 X243.771 Y221.237 E2.12632
G1 X243.461 Y222.139 E2.16438
G1 X243.044 Y223.134 E2.20744
G1 X242.699 Y223.835 E2.23863
G1 X242.246 Y224.685 E2.27707
G1 X241.706 Y225.616 E2.32003
G1 X241.102 Y226.511 E2.36312
G1 X240.589 Y227.178 E2.3967
G1 X239.988 Y227.911 E2.43454
G1 X239.213 Y228.779 E2.48098
G1 X238.45 Y229.521 E2.52346
G1 X237.912 Y229.986 E2.55184
G1 X237.177 Y230.588 E2.58976
G1 X236.223 Y231.306 E2.63741
G1 X235.312 Y231.893 E2.68067
G1 X234.685 Y232.246 E2.70939
G1 X233.914 Y232.658 E2.74428
G1 X232.827 Y233.181 E2.79242
G1 X231.81 Y233.582 E2.83605
G1 X231.171 Y233.793 E2.86291
G1 X230.23 Y234.077 E2.90214
G1 X229.31 Y234.32 E2.94012
G1 X228.09 Y234.55 E2.98967
G1 X227.422 Y234.633 E3.01654
G1 X226.446 Y234.728 E3.05568
G1 X225.439 Y234.79 E3.09594
G1 X224.367 Y234.784 E3.13873
G1 X223.528 Y234.726 E3.1723
G1 X222.52 Y234.625 E3.21273
G1 X221.533 Y234.491 E3.25249
G1 X220.397 Y234.251 E3.29883
G1 X219.746 Y234.07 E3.32579
G1 X218.763 Y233.771 E3.3668
G1 X217.86 Y233.461 E3.40491
G1 X216.867 Y233.044 E3.44789
G1 X216.141 Y232.687 E3.48018
G1 X215.225 Y232.196 E3.52166
G1 X214.251 Y231.622 E3.56679
G1 X213.354 Y231.003 E3.61029
G1 X212.82 Y230.587 E3.6373
G1 X212.073 Y229.973 E3.6759
G1 X211.336 Y229.324 E3.71509
G1 X210.479 Y228.45 E3.76395
G1 X210.015 Y227.912 E3.7923
G1 X209.373 Y227.128 E3.83275
G1 X208.694 Y226.223 E3.8779
G1 X208.107 Y225.312 E3.92116
G1 X207.75 Y224.678 E3.9502
G1 X207.342 Y223.914 E3.98476
G1 X206.849 Y222.903 E4.02966
G1 X206.418 Y221.81 E4.07655
G1 X206.207 Y221.171 E4.10341
G1 X205.923 Y220.229 E4.14268
G1 X205.68 Y219.31 E4.18062
G1 X205.45 Y218.09 E4.23017
G1 X205.364 Y217.396 E4.25808
G1 X205.271 Y216.439 E4.29646
G1 X205.21 Y215.439 E4.33644
G1 X205.216 Y214.367 E4.37923
G1 X205.273 Y213.538 E4.41239
G1 X205.376 Y212.515 E4.45343
G1 X205.509 Y211.533 E4.49298
G1 X205.749 Y210.397 E4.53932
G1 X205.93 Y209.746 E4.56629
G1 X206.233 Y208.75 E4.60784
G1 X206.538 Y207.86 E4.64539
G1 X206.956 Y206.866 E4.68843
G1 X207.3 Y206.165 E4.7196
G1 X207.804 Y205.224 E4.7622
G1 X208.294 Y204.384 E4.80101
G1 X208.898 Y203.489 E4.84411
G1 X209.417 Y202.815 E4.87806
G1 X210.013 Y202.089 E4.91555
G1 X210.787 Y201.221 E4.96197
G0 F7200 X210.685 Y201.634
G1 F1125 X238.37 Y229.319 E6.52463
G0 F7200 X238.943 Y228.761
G1 F1125 X211.24 Y201.058 E8.08831
G0 F7200 X211.821 Y200.507
G1 F1125 X239.486 Y228.172 E9.64984
G0 F7200 X240.011 Y227.566
G1 F1125 X212.433 Y199.988 E11.20646
G0 F7200 X213.059 Y199.483
G1 F1125 X240.518 Y226.941 E12.75634
G0 F7200 X241.005 Y226.297
G1 F1125 X213.705 Y198.997 E14.29727
G0 F7200 X214.381 Y198.542
G1 F1125 X241.46 Y225.621 E15.82572
G0 F7200 X241.882 Y224.912
G1 F1125 X215.083 Y198.112 E17.3384
G0 F7200 X215.814 Y197.712
G1 F1125 X242.285 Y224.183 E18.83254
G0 F7200 X242.671 Y223.437
G1 F1125 X216.565 Y197.332 E20.30605
G0 F7200 X217.334 Y196.97
G1 F1125 X243.025 Y222.66 E21.75613
G0 F7200 X243.347 Y221.851
G1 F1125 X218.146 Y196.65 E23.17858
G0 F7200 X218.993 Y196.366
G1 F1125 X243.632 Y221.005 E24.56931
G0 F7200 X243.895 Y220.136
G1 F1125 X219.863 Y196.104 E25.92578
G0 F7200 X220.76 Y195.87
G1 F1125 X244.124 Y219.234 E27.24455
G0 F7200 X244.313 Y218.291
G1 F1125 X221.713 Y195.691 E28.52019
G0 F7200 X222.708 Y195.556
G1 F1125 X244.442 Y217.289 E29.74692
G0 F7200 X244.54 Y216.256
G1 F1125 X223.744 Y195.46 E30.92074
G0 F7200 X224.827 Y195.411
G1 F1125 X244.586 Y215.17 E32.03602
G0 F7200 X244.555 Y214.008
G1 F1125 X225.988 Y195.441 E33.08402
G0 F7200 X227.23 Y195.551
G1 F1125 X244.451 Y212.772 E34.05605
G0 F7200 X244.259 Y211.449
G1 F1125 X228.538 Y195.728 E34.94341
G0 F7200 X230.011 Y196.07
G1 F1125 X243.927 Y209.985 E35.72886
G0 F7200 X243.425 Y208.352
G1 F1125 X231.657 Y196.584 E36.3931
G0 F7200 X233.625 Y197.422
G1 F1125 X242.572 Y206.368 E36.89808
G0 F7200 X240.882 Y203.547
G1 F1125 X236.399 Y199.064 E37.15112
G0 F7200 X210.152 Y202.232
G1 F1125 X237.765 Y229.845 E38.70972
G0 F7200 X237.143 Y230.355
G1 F1125 X209.642 Y202.854 E40.26199
G0 F7200 X209.147 Y203.49
G1 F1125 X236.501 Y230.844 E41.80597
G0 F7200 X235.839 Y231.314
G1 F1125 X208.684 Y204.159 E43.33872
G0 F7200 X208.249 Y204.855
G1 F1125 X235.149 Y231.754 E44.85704
G0 F7200 X234.422 Y232.159
G1 F1125 X207.84 Y205.577 E46.35744
G0 F7200 X207.447 Y206.316
G1 F1125 X233.679 Y232.548 E47.83809
G0 F7200 X232.916 Y232.916
G1 F1125 X207.081 Y207.081 E49.29633
G0 F7200 X206.746 Y207.878
G1 F1125 X232.114 Y233.246 E50.72821
G0 F7200 X231.281 Y233.544
G1 F1125 X206.454 Y208.717 E52.12955
G0 F7200 X206.188 Y209.582
G1 F1125 X230.416 Y233.81 E53.49708
G0 F7200 X229.528 Y234.054
G1 F1125 X205.938 Y210.463 E54.82863
G0 F7200 X205.741 Y211.398
G1 F1125 X228.592 Y234.249 E56.11844
G0 F7200 X227.616 Y234.405
G1 F1125 X205.595 Y212.383 E57.36143
G0 F7200 X205.486 Y213.406
G1 F1125 X226.592 Y234.511 E58.55272
G0 F7200 X225.531 Y234.582
G1 F1125 X205.415 Y214.466 E59.68815
G0 F7200 X205.419 Y215.601
G1 F1125 X224.401 Y234.583 E60.75958
G0 F7200 X223.174 Y234.488
G1 F1125 X205.509 Y216.822 E61.75669
G0 F7200 X205.656 Y218.101
G1 F1125 X221.892 Y234.337 E62.67312
G0 F7200 X220.488 Y234.065
G1 F1125 X205.942 Y219.518 E63.49419
G0 F7200 X206.395 Y221.103
G1 F1125 X218.893 Y233.601 E64.19963
G0 F7200 X217.074 Y232.913
G1 F1125 X207.078 Y222.917 E64.76385
G0 F7200 X208.349 Y225.319
G1 F1125 X214.657 Y231.628 E65.11993
G0 F600 X214.657 Y231.628 Z0.54
G0 F7200 X237.356 Y230.182
;TIME_ELAPSED:93.889755
;LAYER:-5
;TYPE:SUPPORT
G1 F1125 X240.182 Y227.356 E65.31932
G0 F7200 X237.787 Y229.829
G1 F1125 X238.4 Y229.297 E65.35981
G1 X239.178 Y228.527 E65.41442
G1 X239.828 Y227.788 E65.46352
G1 X240.433 Y227.05 E65.51113
G1 X240.933 Y226.403 E65.55193
G1 X241.461 Y225.63 E65.59863
G1 X242.029 Y224.661 E65.65467
G1 X234.658 Y232.032 E66.17473
G1 X233.826 Y232.478 E66.22183
G1 X232.923 Y232.918 E66.27194
G1 X242.916 Y222.925 E66.977
G1 X243.273 Y222.073 E67.02309
G1 X243.456 Y221.536 E67.05139
G1 X231.511 Y233.481 E67.89418
G1 X230.294 Y233.85 E67.95763
G1 X243.847 Y220.296 E68.9139
G1 X244.055 Y219.555 E68.9523
G1 X244.139 Y219.156 E68.97264
G1 X229.145 Y234.15 E70.03055
G1 X228.102 Y234.345 E70.08348
G1 X244.338 Y218.109 E71.22902
G1 X244.47 Y217.128 E71.2784
G1 X227.14 Y234.458 E72.50113
G1 X226.208 Y234.542 E72.54781
G1 X244.543 Y216.207 E73.84145
G1 X244.583 Y215.617 E73.87095
G1 X244.586 Y215.316 E73.88597
G1 X225.312 Y234.589 E75.24582
G1 X224.47 Y234.583 E75.28783
G1 X244.58 Y214.473 E76.7067
G1 X244.533 Y213.672 E76.74673
G1 X223.668 Y234.536 E78.21883
G1 X222.895 Y234.461 E78.25758
G1 X244.462 Y212.894 E79.77924
G1 X244.375 Y212.132 E79.81751
G1 X222.139 Y234.369 E81.38641
G1 X221.4 Y234.259 E81.42369
G1 X244.254 Y211.405 E83.03616
G1 X244.123 Y210.687 E83.07257
G1 X220.7 Y234.11 E84.72519
G1 X220.023 Y233.939 E84.76003
G1 X243.934 Y210.027 E86.44711
G1 X243.746 Y209.367 E86.48135
G1 X219.367 Y233.746 E88.20142
G1 X218.72 Y233.545 E88.23522
G1 X243.545 Y208.72 E89.98676
G1 X243.328 Y208.088 E90.0201
G1 X218.087 Y233.328 E91.80095
G1 X217.481 Y233.087 E91.83349
G1 X243.087 Y207.48 E93.64016
G1 X242.828 Y206.891 E93.67227
G1 X216.888 Y232.831 E95.50247
G1 X216.32 Y232.551 E95.53407
G1 X242.549 Y206.321 E97.3847
G1 X242.258 Y205.764 E97.41605
G1 X215.763 Y232.259 E99.28542
G1 X215.215 Y231.959 E99.31659
G1 X241.958 Y205.215 E101.20348
G1 X241.65 Y204.675 E101.2345
G1 X214.681 Y231.644 E103.13731
G1 X214.159 Y231.317 E103.16804
G1 X241.316 Y204.16 E105.08411
G1 X240.967 Y203.66 E105.11453
G1 X213.655 Y230.973 E107.04158
G1 X213.173 Y230.606 E107.0718
G1 X240.602 Y203.177 E109.00707
G1 X240.229 Y202.702 E109.0372
G1 X212.701 Y230.23 E110.97945
G1 X212.235 Y229.847 E111.00954
G1 X239.847 Y202.235 E112.95771
G1 X239.453 Y201.781 E112.9877
G1 X211.782 Y229.451 E114.94001
G1 X211.341 Y229.044 E114.96995
G1 X239.042 Y201.343 E116.9244
G1 X238.62 Y200.916 E116.95435
G1 X210.919 Y228.618 E118.90884
G1 X210.51 Y228.178 E118.93882
G1 X238.176 Y200.512 E120.8908
G1 X237.722 Y200.117 E120.92082
G1 X210.118 Y227.722 E122.86847
G1 X209.736 Y227.255 E122.89857
G1 X237.256 Y199.735 E124.84026
G1 X236.783 Y199.359 E124.8704
G1 X209.363 Y226.78 E126.80507
G1 X208.998 Y226.296 E126.83531
G1 X236.299 Y198.995 E128.76154
G1 X235.796 Y198.65 E128.79197
G1 X208.653 Y225.793 E130.70706
G1 X208.322 Y225.275 E130.73773
G1 X235.271 Y198.326 E132.63912
G1 X234.736 Y198.012 E132.67007
G1 X208.013 Y224.736 E134.55556
G1 X207.714 Y224.186 E134.58679
G1 X234.186 Y197.714 E136.45454
G1 X233.629 Y197.422 E136.48591
G1 X207.424 Y223.627 E138.33482
G1 X207.146 Y223.057 E138.36645
G1 X233.061 Y197.142 E140.1949
G1 X232.465 Y196.889 E140.2272
G1 X206.894 Y222.46 E142.03137
G1 X206.651 Y221.855 E142.0639
G1 X231.855 Y196.651 E143.84218
G1 X231.223 Y196.434 E143.87552
G1 X206.434 Y221.223 E145.62451
G1 X206.236 Y220.573 E145.65841
G1 X230.574 Y196.234 E147.37563
G1 X229.917 Y196.043 E147.40976
G1 X206.048 Y219.912 E149.09385
G1 X205.874 Y219.238 E149.12858
G1 X229.236 Y195.876 E150.77689
G1 X228.537 Y195.726 E150.81256
G1 X205.734 Y218.529 E152.42143
G1 X205.616 Y217.799 E152.45833
G1 X227.794 Y195.621 E154.0231
G1 X227.035 Y195.531 E154.06124
G1 X205.531 Y217.035 E155.57846
G1 X205.461 Y216.257 E155.61743
G1 X226.26 Y195.458 E157.08491
G1 X225.464 Y195.405 E157.12471
G1 X205.411 Y215.458 E158.53956
G1 X205.415 Y214.606 E158.58207
G1 X224.612 Y195.408 E159.93655
G1 X223.71 Y195.461 E159.98163
G1 X205.46 Y213.712 E161.2693
G1 X205.55 Y212.773 E161.31637
G1 X222.776 Y195.548 E162.53172
G1 X221.814 Y195.661 E162.58004
G1 X205.672 Y211.803 E163.71895
G1 X205.703 Y211.568 E163.73077
G1 X205.879 Y210.748 E163.77262
G1 X220.752 Y195.874 E164.82202
G1 X219.597 Y196.181 E164.88164
G1 X206.183 Y209.594 E165.82804
G1 X206.552 Y208.377 E165.89149
G1 X218.352 Y196.577 E166.72404
G1 X218.071 Y196.673 E166.73885
G1 X216.95 Y197.13 E166.79925
G1 X207.138 Y206.943 E167.49157
G1 X207.501 Y206.208 E167.53247
G1 X208.05 Y205.182 E167.59053
G1 X215.164 Y198.068 E168.09246
G1 X214.658 Y198.358 E168.12155
G1 X213.877 Y198.866 E168.16804
G1 X212.947 Y199.567 E168.22614
G1 X212.227 Y200.157 E168.27258
G1 X210.157 Y202.227 E168.41863
G1 X210.82 Y201.472 E168.46876
G1 X211.601 Y200.7 E168.52355
G1 X212.211 Y200.17 E168.56386
G0 F600 X212.211 Y200.17 Z0.74
G0 F7200 X237.799 Y200.181
;TIME_ELAPSED:204.881874
;LAYER:-4
;TYPE:SUPPORT-INTERFACE
G1 F1500 X239.819 Y202.201 E168.61137
G0 F7200 X239.298 Y201.602
G1 F1500 X238.526 Y200.82 E168.62964
G1 X237.799 Y200.181 E168.64574
G1 X237.049 Y199.566 E168.66187
G1 X236.402 Y199.066 E168.67547
G1 X240.984 Y203.649 E168.78324
G1 X241.51 Y204.458 E168.79929
G1 X235.534 Y198.482 E168.93983
G1 X234.847 Y198.078 E168.95309
G1 X241.923 Y205.154 E169.1195
G1 X242.267 Y205.78 E169.13138
G1 X234.218 Y197.731 E169.32068
G1 X233.625 Y197.422 E169.3318
G1 X242.575 Y206.371 E169.54228
G1 X242.845 Y206.924 E169.55252
G1 X233.065 Y197.144 E169.78253
G1 X232.574 Y196.936 E169.79139
G1 X243.068 Y207.43 E170.0382
G1 X243.253 Y207.897 E170.04655
G1 X232.086 Y196.731 E170.30917
G1 X231.655 Y196.583 E170.31675
G1 X243.425 Y208.353 E170.59356
G1 X243.564 Y208.774 E170.60093
G1 X231.225 Y196.435 E170.89113
G1 X230.815 Y196.309 E170.89826
G1 X243.692 Y209.185 E171.2011
G1 X243.816 Y209.592 E171.20817
G1 X230.41 Y196.186 E171.52346
G1 X230.011 Y196.07 E171.53037
G1 X243.923 Y209.982 E171.85756
G1 X244.023 Y210.364 E171.86413
G1 X229.62 Y195.962 E172.20285
G1 X229.256 Y195.881 E172.20905
G1 X244.122 Y210.747 E172.55868
G1 X244.2 Y211.107 E172.5648
G1 X228.896 Y195.804 E172.92472
G1 X228.536 Y195.727 E172.93084
G1 X244.263 Y211.453 E173.3007
G1 X244.327 Y211.8 E173.30657
G1 X228.206 Y195.679 E173.68571
G1 X227.877 Y195.633 E173.69124
G1 X244.376 Y212.132 E174.07927
G1 X244.416 Y212.455 E174.08468
G1 X227.547 Y195.586 E174.48141
G1 X227.229 Y195.551 E174.48673
G1 X244.451 Y212.772 E174.89176
G1 X244.481 Y213.085 E174.89699
G1 X226.915 Y195.519 E175.31011
G1 X226.601 Y195.488 E175.31536
G1 X244.511 Y213.399 E175.73659
G1 X244.535 Y213.706 E175.74171
G1 X226.291 Y195.461 E176.17079
G1 X225.987 Y195.44 E176.17586
